src/16/actions/edit-table-delete-column.svg

<svg xmlns="http://www.w3.org/2000/svg" viewBox="0 0 16 16">
  <defs id="defs3051">
    <style type="text/css" id="current-color-scheme">
      .ColorScheme-Text {
        color:#5d656b;
      }
      .ColorScheme-NegativeText {
        color:#da4453;
      }
      </style>
  </defs>
 <path style="fill:currentColor;fill-opacity:1;stroke:none" 
     d="m2 2v12h12v-12h-11zm1 1h10v3h-2v1h2v2h-2v1h2v3h-10v-3h2v-1h-2v-2h2v-1h-2z"
     class="ColorScheme-Text"
     />
  <path 
      style="fill:currentColor;fill-opacity:1;stroke:none" 
     d="m5 3v10h1.719l3.281-3.281v3.281h1v-10h-1v1.281l-4 4v-2.563l2.719-2.719h-1.438l-1.281 1.281v-1.281zm5 2.719v2.563l-4 4v-2.563z" 
        class="ColorScheme-NegativeText"
  />
</svg>

<svg xmlns="http://www.w3.org/2000/svg" viewBox="0 0 16 16"><path d="M2 2v12h12V2H3zm1 1h10v3h-2v1h2v2h-2v1h2v3H3v-3h2V9H3V7h2V6H3z" fill="currentColor" color="#5d656b"/><path d="M5 3v10h1.719L10 9.719V13h1V3h-1v1.281l-4 4V5.718l2.719-2.719H7.281L6 4.28V2.999zm5 2.719v2.563l-4 4V9.719z" fill="currentColor" color="#da4453"/></svg>
